ci/cil-chart-pie.svg

<svg xmlns="http://www.w3.org/2000/svg" viewBox="0 0 512 512" height="1em" width="1em">
  <path fill="var(--ci-primary-color, currentColor)" d="M105.361 398.32A195.891 195.891 0 0 1 343.42 91.125l23.256-23.255A227.875 227.875 0 0 0 82.733 420.948 228.027 228.027 0 0 0 366.24 452.1l-23.312-23.312c-75.028 43.98-173.271 33.829-237.567-30.468Z" class="ci-primary"/>
  <path fill="var(--ci-primary-color, currentColor)" d="M468.916 353.07a243.542 243.542 0 0 0 0-186.459 247.667 247.667 0 0 0-2.747-6.354 242.246 242.246 0 0 0-50.059-72.686L404.8 76.257l-11.317 11.314-172.27 172.269 172.63 172.631 10.957 10.953 11.31-11.314a242.218 242.218 0 0 0 49.452-71.358 249.292 249.292 0 0 0 3.354-7.682Zm-64.557-231.12a211.57 211.57 0 0 1 0 275.781L266.468 259.84Z" class="ci-primary"/>
</svg>

<svg xmlns="http://www.w3.org/2000/svg" viewBox="0 0 512 512" height="1em" width="1em">
  <path fill="var(--ci-primary-color, currentColor)" d="M105.361,398.32A195.891,195.891,0,0,1,343.42,91.125L366.676,67.87A227.875,227.875,0,0,0,82.733,420.948,228.027,228.027,0,0,0,366.24,452.1l-23.312-23.312C267.9,472.768,169.657,462.617,105.361,398.32Z" class="ci-primary"/>
  <path fill="var(--ci-primary-color, currentColor)" d="M468.916,353.07a243.542,243.542,0,0,0,0-186.459c-.885-2.136-1.806-4.251-2.747-6.354A242.246,242.246,0,0,0,416.11,87.571L404.8,76.257,393.483,87.571,221.213,259.84l172.63,172.631L404.8,443.424,416.11,432.11a242.218,242.218,0,0,0,49.452-71.358C466.716,358.212,467.844,355.657,468.916,353.07ZM404.359,121.95a211.57,211.57,0,0,1,0,275.781L266.468,259.84Z" class="ci-primary"/>
</svg>
